Komodo/status/scalable/battery-missing-symbolic.svg

<?xml version="1.0" encoding="UTF-8" standalone="no"?>
<!-- Created with Inkscape (http://www.inkscape.org/) -->

<svg
   xmlns:dc="http://purl.org/dc/elements/1.1/"
   xmlns:cc="http://creativecommons.org/ns#"
   xmlns:rdf="http://www.w3.org/1999/02/22-rdf-syntax-ns#"
   xmlns:svg="http://www.w3.org/2000/svg"
   xmlns="http://www.w3.org/2000/svg"
   xmlns:sodipodi="http://sodipodi.sourceforge.net/DTD/sodipodi-0.dtd"
   xmlns:inkscape="http://www.inkscape.org/namespaces/inkscape"
   width="16"
   height="16"
   id="svg2"
   sodipodi:version="0.32"
   inkscape:version="0.48.1 r9760"
   version="1.0"
   sodipodi:docname="battery-missing-symbolic.svg"
   inkscape:output_extension="org.inkscape.output.svg.inkscape"
   style="display:inline">
  <defs
     id="defs4" />
  <sodipodi:namedview
     id="base"
     pagecolor="#ffffff"
     bordercolor="#fd0000"
     borderopacity="1"
     inkscape:pageopacity="0.0"
     inkscape:pageshadow="2"
     inkscape:zoom="15.810166"
     inkscape:cx="-28.874605"
     inkscape:cy="1.4258958"
     inkscape:document-units="px"
     inkscape:current-layer="layer1"
     showgrid="true"
     inkscape:showpageshadow="false"
     showguides="false"
     inkscape:guide-bbox="true"
     inkscape:window-width="1920"
     inkscape:window-height="1028"
     inkscape:window-x="0"
     inkscape:window-y="25"
     inkscape:window-maximized="1">
    <sodipodi:guide
       orientation="1,0"
       position="0,112"
       id="guide2383" />
    <sodipodi:guide
       orientation="0,1"
       position="26.278146,128"
       id="guide2385" />
    <sodipodi:guide
       orientation="1,0"
       position="128,54.082119"
       id="guide2387" />
    <sodipodi:guide
       orientation="0,1"
       position="78.156291,0"
       id="guide2389" />
    <sodipodi:guide
       orientation="0,1"
       position="60.863576,64.084768"
       id="guide2391" />
    <inkscape:grid
       type="xygrid"
       id="grid3672"
       visible="true"
       enabled="true"
       empspacing="8"
       snapvisiblegridlinesonly="true" />
  </sodipodi:namedview>
  <metadata
     id="metadata7">
    <rdf:RDF>
      <cc:Work
         rdf:about="">
        <dc:format>image/svg+xml</dc:format>
        <dc:type
           rdf:resource="http://purl.org/dc/dcmitype/StillImage" />
        <dc:title />
      </cc:Work>
    </rdf:RDF>
  </metadata>
  <g
     inkscape:label="Icon"
     inkscape:groupmode="layer"
     id="layer1"
     style="display:inline"
     transform="translate(0,-6)">
    <path
       inkscape:connector-curvature="0"
       style="fill:#bebebe;fill-opacity:1;stroke:none;display:inline;opacity:0.45"
       d="M 2,20.75 C 2,21.4425 2.5575,22 3.25,22 l 8.5,0 C 12.4425,22 13,21.4425 13,20.75 L 13,9.25 C 13,8.5575 12.4425,8 11.75,8 L 10,8 10,7 10,6.5 C 10,6.223 9.777,6 9.5,6 L 9,6 6,6 5.5,6 C 5.223,6 5,6.223 5,6.5 L 5,7 5,8 3.25,8 C 2.5575,8 2,8.5575 2,9.25 l 0,11.5 z m 2,-1.5 0,-8.5 C 4,10.3345 4.3345,10 4.75,10 l 5.5,0 c 0.4155,0 0.75,0.3345 0.75,0.75 l 0,8.5 C 11,19.6655 10.6655,20 10.25,20 l -5.5,0 C 4.3345,20 4,19.6655 4,19.25 z"
       id="path3775" />
  </g>
</svg>

<?xml version="1.0" encoding="UTF-8" standalone="no"?>
<!-- Created with Inkscape (http://www.inkscape.org/) -->
<svg id="svg2" xmlns:rdf="http://www.w3.org/1999/02/22-rdf-syntax-ns#" xmlns="http://www.w3.org/2000/svg" height="16" width="16" version="1.0" xmlns:cc="http://creativecommons.org/ns#" xmlns:dc="http://purl.org/dc/elements/1.1/">
 <metadata id="metadata7">
  <rdf:RDF>
   <cc:Work rdf:about="">
    <dc:format>image/svg+xml</dc:format>
    <dc:type rdf:resource="http://purl.org/dc/dcmitype/StillImage"/>
    <dc:title/>
   </cc:Work>
  </rdf:RDF>
 </metadata>
 <g id="layer1" transform="translate(0,-6)">
  <path id="path3775" style="opacity:.45;fill:#bebebe" d="m2 20.75c0 0.692 0.5575 1.25 1.25 1.25h8.5c0.692 0 1.25-0.558 1.25-1.25v-11.5c0-0.6925-0.558-1.25-1.25-1.25h-1.75v-1-0.5c0-0.277-0.223-0.5-0.5-0.5h-0.5-3-0.5c-0.277 0-0.5 0.223-0.5 0.5v0.5 1h-1.75c-0.6925 0-1.25 0.5575-1.25 1.25v11.5zm2-1.5v-8.5c0-0.416 0.3345-0.75 0.75-0.75h5.5c0.4155 0 0.75 0.3345 0.75 0.75v8.5c0 0.416-0.334 0.75-0.75 0.75h-5.5c-0.4155 0-0.75-0.334-0.75-0.75z"/>
 </g>
</svg>
